P6
108 48
255
-.),.(+-(*,'*,'*+&*+'+,'++'+,'*,'+,'+,'+,'+,'+,',-'-.(-.(,.(,-'+-',-'//*11,33./0++-((+&*,'.0*44.88278234.01*01*/0)./)..(--(,,'+,'01,55099455011,,.)./*./)-.(+,'*+'*+&*+'//*55/::499355/00*.-(--(..(..)//*..)--(,-(//)21)*,',,'--(..(00*33,65-43,22+//)//*..)..(--(--(,-(--(..)21+22+22+00*//*11,33.87177177122,/0*,-(--(,-(,,'*+&(*$00*01+23,12+11*10*43,32+10)//(10)32+10*0/(.-&/.'0/'21(22)01(00(01(22)54,:80:9255.,-')*%-.'45,==4CB:BA::9322,00)11)32)31)1/'/.&0.'75.BA9HF>DC;::276.87/98054,10).-&-,&.-&75.CB9LJAJH?A>663+30)31)53+86.;90<:1:8064-43+32),-'..(32*74+<9/A?4FC8FC9CA8@>6=<498064,53*42*21*32+87/;90>;2=;2<:2981:92@?7GE<JG>EB:=;375-53+64-42+10),,&*+%22+770<;3;:197.<90@=4@<296,85+>;1B?5>;274+41'52'74(75(86)64(75)98+;:-=;/@=2B?5:8/0/'++#22'=</FD8MJ@JH??=644-//(31)85*:5)83'61&72'@;0LH>WUJTRFKJ=CA4FC7FC7B?3:7,74)84*:6,C?4SOD^ZN\XLPK@C>4@;0>:/B>2FB6LG;NI=MH<D@5:7-42)/.'20(:6+B=0ID6NJ<UQCWSGXTIWTISOEKG=D?4@;0=8-96-=:1C?6HD9ID9MI>OKAOLBOLBVRG]YM\XLUQFHD9A=2A=2C?5@<296,20(0/'23,991A?7@>4B>4FC7LH<IF8A>/@</HE9NK?HE:@<0<8+=9+<8*<8*<8+=:-?<.B?1C@2B?2A=1>;096+20%10$97*A>0GC6ID9EA8;9111*-,&20':5(>8*?8+@9,A9,F?2PK?YUH\YJURAMJ:LH:NJ=LH;ID6IE7MG:KF9MH;VQD`\O_ZMXRFOJ>KE9HB5JD7OJ<UPBYSDWPCLF9=9/31(0/'42)?;.ID5PK:SN?WSF_[Nd`UfbWb_SYUIQL?LG:GC6EA5EB8KG=LH=QLAYTI`\Qc_Sd`TfaUgbTc^PYSFMG;GA4GB6KF:FB6?;175+52*//*55.;91>;1C?5KH;PM>ML9EC0C@1JG:OM@KH;DA3C?0C>0?;,=8+@<0C?3FB5GC5IF8GD7@=184)30$42%75'=:,A>/A<.>9-:6,32*//(-,%2/&94'A:+G@1IB4IB4KE7OJ=VRCWSCVR@LH8JF8MI<QM?TPA[VF]XHXSDOJ<NJ<TPBWSFYSGVQDTOBNI;OI;PK=UPBUOARL=HB5:6,0/'20'85+E@3NH9OI:MH;PMAYVKb_SgdWdaT_\NXTGVREROANK=MJ=MI>PLAVRFd_Tmi^rmapl_mgZfaR^XJTOAMG9IC5HC6ID8HC8EA6>:0:7.,-'/.(42*:7-C?4LI;ON<MM8DD/@>.C@3GE8FD7FD6FC4DA2>;-=9-A>2IE9IE9LH<MJ>LI>?<230%/,31#86(><,><+<9(74$30$0.&/.'0.'30':4'B;-IB4MG9MF9NH;PL>QM>PL<NI9JF6GD6JG:QM@XUEa]Lc_MXTDJF8A=0D@4LG;SNBVQDUPBSM?PK<NI;LG9ID6FA2>:-42).-&52(@<2OJ=XSDSN?JF:JG<SPFZWL^[N_\N]ZK]ZL^[MZWIVTESPCWSFVRF^ZNjfZtpdwsfsnakfWa[LTO@MH9JF7KF7HC5HC6JE9JF:C?5<9/**$.-%20&85*@=1HE8ML;JJ8A@098*65);:.A?3FC6FD6B@1<;+<:,B?2GD7JG;MI?OLBIF<=:12/%.,!1/"42%:8(>>)>?(;;'65'21'10(10)42(:5(@:+E?1HB5JE8MH;QM@RM@QL>OK<NL<LJ:HF7JH9QO@[XGZWERN>B>1;7,?:/HC7QM@TOBTOBRN?TOAOK=JF8FA2C>/;7*20',,%62(EA7ZUId_Q]YKOL@IF;PMBSPEURFVTF\[K`]Na^O[XJXUG]YKc^Qd`SeaTkg[rocuqdsnalgYa\MTO@KF8KG7PK;PL<QL=PL>NJ>D@6=:0++$/.&53(;8,?</HE8NL>LK=A@454*0/&66,>=2DC7CB4@A0>?-BB0DC2GE6GD8JG>GE<CA8;:186-54)42&41%98'@A+FH/DF/??.76+22)10)63*<8,A<.C=.C=/E@3MH;TPBXTEXUF[XH\ZIUTCKJ:EC5JH:QN@ROALI<B>4<8-@;/JF:QMASOBNI=NI;RM@SOBQM@OK<LH8EB487,00(20'GC9^YMkgZd`SVTHNK@RNCSODROBVSF][Mb`R`]NXTFYVHc_Smi\mi[jfYgdWjg[ol_tpbql_gcUXTGMI<MH;TO@XSC[VEXSDQM@C@6:8/**$--%41'85(<9-FD7OMAPNADC776,21(65,::0<<2;<0<>.DD2JI6IH5DB2?>2=;2<:3>=4BA7CB6@?2=:-<8,@=/EE2KK5KL6GF5<</22)0/'74+B>2HC6HC5C>0E?2MH;XUE[YH`^Mc`PdbQ]\JON>FD6GC7NK?QNBPMCHE;C?4D?3KF;RMAOJ?ID9HC7OK?WSGXTGWSEWTCQO>CC656,/.'A?6XTIfbVebU^\PXUIWSHVQFTPDXTH^[O`]P[WJUQD[WKeaUni]ni\kgZfcVhdWmi[rn`pl`ifZ]YNUQFSOBXSE[VG^YI]XIUPCFC8980)*$++$0.$41$96)B@3LJ<ML>FD6::,65*76-55,34,12)99-EC3ML9IG5?>.43(00(33,>>5IH<LK=KJ:KH9KH;KI;KI:KI8MK9KI8@>154*.-%74+EA5OJ>MI=HC7GA4MH9TQ@[YF_]Kb_Na^OYWHPO@HF8IF8OK>SPDSPEOLALH<JF8JF9KF9IE8E@4FA5NJ>UREXUGYVG[XGXWEII::;00/(=;2NK?_[NfbUgcWc_T_[P[WKZUJZWKZWKXUITPCUQD\XLb^QfaTe`SfbUgdWli[mj[jgYgdWd`U`]R\XN]YM]YL]XK^YJ\WHXSEHE:;:1)*%++$/-#41#74&=;,CA2FE5BA2<=-:9+76*32)--&//(98-EC5JH7EC298)--"++#21*>>4GG:LK<QO>TRBVSEROBHE9EA3FA2EA2<:.42)+*$41)B>3KG<NJ?IE9HC6JE7QN=WTB]ZH\YIVSEOL?IH:HH8LJ;RO@SPBRNAQN@RPAPN<JH7FB3FB4IE7NI;SN@XTFYUGZVGZVEURAGF899/21(<:0LH=]ZLhdVlh[hdWb^R`\Q]YN[XLVRFQM@OK=TOBZUI\XL\XK]YK`]OifXpm_jgY`]PXUJYVL[XN`]Rc_Sc`Sb^R_ZN[WISOBGD8;90+,&--%20%84&;8(<:*?<,@>-?>.AA0@@0<:,31'0/&54+A?3IF8KH8CB189)01$..#54*>=3DD7IH9PN>XVFXVGNK?B>3;6*;6):6*52)10(++$1/':7,B>3GB7IE9ID8KF9QM?XUF]YJWSDMI<D@4DB4JH:RPAWUETQANK<OL<QO>SR>LL7HF4IF5QM=WSBZUEYTFZUGYTEVQBOK<B@487.20(<:1NK@_[NgcUgcTd`Ra]Pa]Q_\Q^ZOVRFRN@MH;QL?TPDWSGZVJ\YKb`QigYmj\gcVZWKRODOLBSPF[WLc_TfbVgdXd`T[WJOJ>@=297.--'/.&41%:6(?;,A>.@<-?;+A?/FE4GF5>=.42&31'=;/GD8NK=MK;EE3=>,67'33$64)=<1BA6BA5HG8ON>OL>EB674)2."2-!1.#/-%--&--%1/&73(;7*@;0GB6NI<OJ<TOC]XL_ZMWREID7A=1EA4OK>YVG[YIXVDOL;JG7MJ:PO<OO;ON:TR?\XF_ZI]XHYTFWRDVQCSN@MH<A>475.31)?=4RND`\Pd_Ra\M^ZI\YJ_\Oa^Rb^R\YLUQEQM@TPCWSF^ZNc`Slh[ol]ro`nk]hdW`]QYVKTPFPLBSPEZWKc_ShdWgcV\XKNI=?<175-.-'0.&41%;6(B=/FB3D@0@<-B?0GF6EE4>=/85);8,A>2HE8KH:JG8ED3>>-99(54%53'87.:91::0?>1ED6GD7?<074(30"2/#0.$.,%.-'/.'30'73'94&=7*GA4OJ<SM?TOAYTG]XKWRELG;D?3GC6QM?ZVH^[L[XHQM>IE6JF8NL=NN;TS@\ZHb^N^ZJXSETOBSNARM@QM?MJ=C@6:9053+EB9XTJc_Sc^Q\WHWSCXUF_\Od`ThdXa]Q[WLYUJ_[Ob]QfbUnj^vreyvhwtetpbmj\ifYeaU_[PUQFMI>OK@ZWJfbTfaT`[NRNCDA786/.-'0/&52&:6(B=/HD4HC4C?0?=.>>/=<.98,<:/C@5HD8HE9FC7FC6BA2=<-97(96(96+76-44-12*66,@>2DA4@=1:8+86(63&1/%.-%--'1/'30'93(=6*B<.IC5SM>VQBVQCWRF[VJ\WLTPDKG<IE9OK?XUH]ZM[XKSOANI<OK>PM?QO?VUD^[K`\MZUGUPBRM@QM@MH;KG:HE8@?487.75-IF=^[PhdXd_RXSESN@WSF^ZNc_Sc_S^ZN[WL`]QieYjfYkg[pm`yvhxufwsdro`so`nj]lh[fbV[WLOK@JG;SPC]YKd`Ra\OYUJHE;;92..'10'53';8*C>/JF6MI8GD3<;,54(01'65,?=4KH=MJ>JG<GD9DA6@=1:8+75';9,?=2>=488123,880A@5HE9EB5C@3A?0=;.75+10)0/)0.'2/&:5*D>2KD7PJ=UOA[VI]YL_[Ob^Rb^S]YNTPEOK@SOCXUI]YMYUIUQEWRFZVIZVHXVGYVHXUGVQETOBSN@QL?KF:FA4B?0A@0;:-55+43+GD;^ZOjeYe`SWQERM@UQE\YM\YMYVJSPDURG_[PhdYifZkg[nk_rnbpl_li[nj\rn`soali[daT]ZMVSGQNCPMAWSE]XJa\NXSGGE;87/0/'20'74(<8*D?0KF6MJ8HF5;:,//$*+#33+A?6KI?NLAMKAJH>HF;?=286*65(<;/CB7EE:>>6:;3>>4CB7EC6HF8IF8GE6C@4=;176/00*10)53*A<1KE9TNAUNATOBXTHb_SieYjfZfbW_[P[WKYUI\XL_\P^ZOYUIWSG]YLc`Rb^Q_\OZWKSPDNK?OK>SNANH;D?2=8+>:,><.98,44*0/(@=4XTHhcUgbT[VIQK?SNCUQFURGTRFTQFWTH[XMb^ShdYlh\pl_pl_kgZgcWkgZuqdvrdli[`]O]ZL^[N[XLURFQL@VPCYTFUQEEB898031(41'73'<7)C=.JF5MJ8IH7<<.00&+-#45+?>4GF<HG=IH>IG=DB8:9/32'11'77.=>4AA6@@6AA7EE:DD6CB3FD5KI:HF7DA5A?6:9143-43+<91GB6OI<TM?TMAOJ=TPE`\QieZhdXc_S]YN[WK^ZNeaTfbUc_RYUIWTG]ZLd`Rb^Q\XLTQFOLAKG<MJ=OL=LG9A<.=8+A</D?3?<186,//(<:1SODd_RicU]WIPK>KF;MJ?QND]ZOdaUd`T_[P_\QeaUlh\ok^pl_hdXeaUkg[tpcsobhdW\YKZWJ_\O`]QXTHNI<MG9UOASOBHE;98063*73):4(;5(>9*C?/IG5ED4=</66*88,==0@?5@?6@?7AA8DB9?>376+10&00'12*45,99.A@6IH=LJ?EC6><.@>/DA3CA3@>2=<298043+86.@=3JE:LE9MF9KD7LF:TOD]YM`\P]YM[WKWSGVRF\XKeaSebS`\NXTHXTGZVH^ZKXUGQMBIE;HD9HE9MJ<PL=NI;GA3B</D>2IC8B>4<9/32*?=4QMB_ZM_YKVPBID7D@4HD9TPFdaVol`nj^eaUb^Rd`TjfXpl^nj\fbV`\QeaVkg[ieYb^QZUIZVJ_[Ob^RYUHOK<OK;VRCXTGKH>?=453*85+;6*;5(93&<8*@>/B@1?<0B@4IH:LJ=GE:=<476/980;90:8,75)64)65+43*21'75*EB8TQGUSHMJ??<0;7)>:,?</></;:.55+32*74,>:1C>3D>2C;.D=0MH;YTH^YMWSGQM@PK?OJ>NJ>TPC]YK]YJXTFTQCUQDUPCRN@NJ=HD9A=3>:/B>1KG9RM>VPBOI;IC5F@3GA6A=2;8.64-@=5NJARMBQK>HA4C>2C?3JF;URGd`UifYhdXc^Rb^Rc_SieWkgYjfY`]QXUJYUJ_ZN`\O\WKXSG[VKa]Qc^Q]XIUR@XUC\YJXTHJG=?<321)64+;7,94)60$40$85):7*@=0JH;WUGYWIRPDB@887/64*<9->;.A>0C@3CA5B?3=:.>;/KH=XUJ^[PURGIE:@;/?;.A=0?=/98+22(/.'52)73*;6+<6*>6(B;-NH<ZUI[VJSOBKG:JE8ID7HD7NJ=TQCSPBPM?OK>QMALH<ID8GC7IE:B?4@</B=.MG8VPB[UGXRESM@LF:GB8=:187.42*;81C?5E@5C</?9-C>3LH=UQE[WL]YNZVKYUI^YMe`ThcVhdVhcVc_S[WLSODQMAVQEYTGVQETOC[WJd_RfaT^ZK[XG_^Ka_OYVIHF<>;3..'21(52)51&1,"0+!2.$62&?:.KH;YVH][NXUJJG=;9.95)B?1IF7KH:LH:MJ<LH:HE7GD8MK@XVK[XMZVLRNCLH<GC6C@2></87+10(..'0.&2/&40&82&<4&A:,KF9TOBVRDQM@MI<JF9FB4FB4LI;SQCROAMI<IE8GC7D@4D?3GB6KG:KH9HD5ID4SM>[UGb\N`[M_ZMWRFNK@@>587/1/(31);6-@:/C</A;/HD:UQGa\Q`\PXTIOK@RNB^ZMjeXjfXgbUa]P[WLSPEMJ?KH<OJ>QL@PK?PL?XSGc^Qb^Q]XKYVGa^Nb_Q\YMJG?=;4--&/.&2/%0,#.* .*!2/&73)>9-GC5ROBYWJXVJLI>?;/?:+IE7RO?QN?NK;LH9NJ;JG9KH<NL@PNCRODQNCSOEQMBJG:DA4=;.87,43*10(0.&1.&4/%71%;4&?7)D>1LG9QL=PL=NJ=JF:GC6FB4NK<WSEXTGOL?D@4?;/?;/D@3JF8PL<RN=PL:OJ9WQB_YIb]Nc^Pc^Q]YMTQFDB8:910.%1.%:5*E>2KD6IC7LG=XTIb]Ra\PYTHUQD\XKeaSlhYlgYgbU_ZNWSHOLAIF;FB7JF:NJ=OK=OJ<TOBYSGYTHTPDVRE\XJ`\P[XMMJA?=5-,%0.%3/$0,",(-*"74,>:0@=0A=.GE6NL?ML?EC7<9+?9*IE5PL=NL=IG8EB3EA3C@3DB7GE;JH=FD8FB8GD9IF;FC7@>0=;.;9-76,64+20'2/&4/%60%:2%:3&?9+GB3NI9NI:IE8FB6D?3FB3OJ;ZVG]YJUQDFA5=8+=9,EA3LI9SO=TP<RM9SM;YSC`[Kc^Na\M`[MZVIQNBBA698/1.&3/&=8-IC6QJ<MF9ID9MI?TPEUQEWRF]XKfbTjeVjeVidVfaT_ZNZVKTQFOK@LI<QM@WSEYUFUPARM?SNASNBSODTPDYUIYUIWSHJG=@>5.-&30&61&4.#.)/,%:8/DB7D@3B>/B?1DB5A?3<:-95(=8)B=/HD6GE8EC6@=1<8,74)86.<;2AA5A@3><0;8-;8.;8,;9,<9,<:-97,86,41(41'61&;4(?8+A;-@:-D?0JD4JD4GA3C=0B=0D?0MH8YTD]YJWSFID9>9,:6)@</HE5NI7QL9TM;XQ@\VF`[J`\J\XGVQCPK>IF9=<154,2/&50&?8-IB5OH:KD7B=1>:/A=2FA5NI>[WJfaTfaSd_Pa\N_[N[WKYUJXUIXVIXVG\XJ_[Lb^N\XHWRDUQDYTHXSGWSGWRFWQEPJ?EA7=90/.&20&61&4.#/* 0,$:7.B?4EA4C?1A=0;9.54+21'41%72&94(=9.@>3CA7>;174*0-$/-'22*:;0AA3?>186+0.#0-"41%96):8+86,54+52)73);4(A:,JD5MG8HC5A<.C=/HA2G@1C=/@9,?:,FA2NK;SPBPM@FB7;6,62'95)@<.FB1NI8VP?]WG^YI_[I]ZGXUDQM=LG:GC7<:021*3/&62'>8+E=/JA2F>/>8+62&62'84)B>4NJ?WSGYUHXSGTOCRNCSODWTI[XL`]P`^O]ZK]ZKa]O`\N\XK[WJ]YMZVIXSGYTGVQDMH=?;185+--&0.&2.$2-#0+ 2.$63*=:/A=1D?3?<186.22+32+74+74*63)96,?<3A?6=:152).,$-,%//'78-??3B@5;8.30'2/%61&95)96+54*11)63):5*?7*G?0QJ9UP@MH:C>2C=1GA3HA3D<.>8+:5)<9,DC3II9LK<GD8@<284+73(<7*D?0NH9WQB\WI[VHWTDTQ?SP?SP?RN@KG;=;232*63*:5+@:.C;-E<-B9*=6)94(83(95)<9/@=3DA7GC8IE:EA6EA7MI?WTI]ZO^[OZXJSQDPNBWUH\XK\XKYTHXSFWQEXSFZUHXSGIE;:7.20'-,&-,%.+#/+"2,!3.#40&52(:6+;7-86-21+22+980><3=:096+<9-C?4EA7>;241).+#0.&32*87-<;1;9/96-95,;7-=8,;6*84)32)/.(63):5)?7)D<-KE5MG8JE8FB6GB7HC7D>1A:.?9,<7,:8,??0IJ8ON?ROAKG<D@5=8-?:-E@1KG8OK=TOCTOBPK>LH8PM=XUEZWHPNAA?565,85,=:1C>3D>1C;,@7);5(94(;6*=9->:/<9.<9/>;1B?4@<1C?4PLA]YN_\QXVKOMBHF<GE;LJ?RNBRNAPK>QL?UPBZUH[VJUQEHD:75-..&+*$+*$,*"/+"3-"4/$1.$0.%1.&3/'1/(21*980@?5EC9A?3>;.A=0HD8JG;D@685+2.%42(97-;:087-53)52);8/B>3A<0=7*72'1/&--&53*96+>8,?9,?9,?:-@<1EB7KG<ID9D>3B=1E@5E@5@=2BA3KK;XVGYVIWSFLG;E?3C=0E@2EA5FB7KG<OJ?LG;HC6MI:WSD[WISPDDB886.76.=:2EA7D?3C;-=6(93(73(:6*A=1GC7HE:GD9HE9IF9IE9NI>XTH`\Q]ZOSPFJG>IF>JH?JH>IE:FB6HC6PK>YSE[UHYTGRNBGC975-/.&((#)(",)"0,"4.#3.#/,#-+$/-&1/'20)86.?=4DB7C@5@=0?;.B>0GC7IE:EB8=9/63(95*=;/<:/76*11%10%74+<8.>8,:4'50$/-%++%43+;80@<2>9.82'50%95,A>4EA7GB8FB7KF<MI>MI>EB7DA6LJ>VSG[XLVRFRNAMH:LF8LG:HD9FC9JF<PK?NI<HC6GB4QL>WRDUQEGD:<9132+97/?;2D>2D>0C=0>9.;7-<7-D?4PL@WSHYUIVREUQCVRF\XMd`TgcWb_SXUKQNEROETQGQMCIF:C?2GB5TN@ZUFYTFVQDSOCIE::8//.&((#((",)!1-"5/#3.$.+"/-%53,86/:7/<:1CA7D@5A=1=9,>:-@;.A=1B?5B?6<9095+:7+<9-:8+54(22%0/$0/%41'61%72%30$/.&,,&33,;91C?6@;194)51'<90C?6FB9HD:NJ?TPEROCMJ?GD:GD:JG=QMCQNCURFVRFWREVQDWREUQDOLAPM@UPBPJ<E?3>9-HB5SM@UPCKG<?<210)52*;5+A;/JE7LH:IE8C>3A=2HC9TQEb^ReaTb^P]XK\XLc`TifZkh[fcW_\QWTJXUIYUJWSGOK>JF8NI:TN?WRDTOBSNBPK@IE;:7./.&++%,+#.+"2-"4/$3.$/,#20'97/?=4=:1=:1>;2A=3?:0=8,<7*;6)95+96.86/76.86-<9.;8,74(21$0/#..".-"0-"2/"3/#2/$/.&..'10)96.?;2A;1<7,>9/D@7OKAQMCSODUQFZVKWSGQNBJG<LH>KG=JF<KG=SOD[XL]YL^YL`\N]YLXTFUQBVQ@OI:D?1=8,F@4QL?UQCKG<@=32/'62(:4(C=0OI<VRCPL?JE9FA6HD8RNB^[MgcUfbT`\O\YMa]RgdXjfYfcVa^R\YN\XL[WJWRETPBWSDWSCWRCSM?QL?NI=NI>FB7;8.1/'0/'1.&1.$2-#2.#2.#1-#1/&86->;2A>4=:0;8/<91>;3<8.95*62'41(10(//)21+:91?<3=9/62'0-"0."/.#0/#20$2/$1/$0.$/.&..'0.'52);6+>8-A;1E@6NJ?WSH\WL[VKZVK^ZN_\OYVJPMAKH=KG<HE:IF;ROC[XL_[O_[N`\N^ZLYUFSN?OK:KF7FA4B=1FA5MH;PL>FC8;9/41(83)<5)B</MH:SNARM@LG;HC8HD8KG:URC`]McaQ_]OZWK[XM^[O`\O[WKYVK\YM_\OZUHUPCYUHdaShdV_[MUPBMG9JE8FA5A=196+31'20(20'3/%1-#2.%30&41(30'52)>;1DA6C@6:9076/76/75-31(2/%1.%.-&+-'23-=<4DB9@=396+2/$0.#/.#0/#10$20%1.$/-$-,%--&/.&41':4)?9-B=3JF;OK@XSHYUJYVJZVJb^ReaUa^RUQFMI>KG<KH<IF;NK@WTH]YM^ZM[XJYVHSO@MH9HD4GC4FB5E@4C?3E@4D@4=;054+41)63)94(?:.GB6QL@TOCUPEOKAKG<HD6NK;WUC]\K][MZXMXVKXUJURFPLAPMBYVJ`\P[WKWSGa]QqmaspchdXVQDKE7D?1@</;8,74*31(20(1/'1.%0-#30&97-<:087-64*=;0FC8DC8?>499187043,32*53*76-77.56.890?>4CA6C@5?<1<9.63)31'10&43(32'20&.,$-,%,,&/.'30(84*=8.A<2D@6IE:MI=OKAPMCVSH]ZOa^S\YNTPFMI?LH>JF<HF;KH=SPEYVJZVJVSFPM@LH:GD5D@2B>1A=1@;0?:.<7+95*42)0/(21)30(40'95+D@5QLA\XL_\Q\YOSOENJ=OK<TQAXVG\ZN\YNXVKSPFQNCKH=NK@VSH]ZN\XM]YMgcWqnbsodd`URNBE?2B<.<7+84)31(10(1/'/.&/-%/,#53(=;0CB7?>2;:.@>1HE9IH;FD8CB8?>598064,<:1CB9EE<CD9@@4@?2@>2CA4GF9GE9B?4<:0;9/<;187,21'-,$-,%--&.-'10)74+;8.<8.>;0@<0C?4EB8MJ@SPFWTJTQFOLAKH>MI?MJ@IF<HE:JH<NL@QNCTRFPNBLJ=FC5IF7GC5EA5@<1=9-:4)83(51'0/'--'1/(0.'0.&84+EA7VRG`]QgdYb_TZWLQNBROAQNATREYWK_\Q[XNTQGPMBQNCSPEWTI[XM\YM`]QdaUgdYa^SURHHC9D?2D?3A<0;7,42)0/(0/'/.&.,$/-#63'><0CB4AB3>>/BA3MJ;QO?PN?KI>HG=@?5=;1@>5KI@POEMLAFE8?=/<:,BB2JI:PNANL@MJ?KI>GF;=<132),+$.,%/.&00(33)98,:8-:7,:7,=:->;/C?5JG=PMCNKAFC9>;1C?5JG=NKAMJ@MKANMAMK@JH=LJ@NLAHF:DB5HE8OL?OLAHE:?;/94'93(73(30(/.'.-&/-&1/'85,EB8ROD]ZN`]R`]RXVKTRGQOBPNBMK@TQG]YO_\RXUJSPESPFZWM[XN]ZO`\Qb^R_\QWTJNKADA7EA6KG;NI=ID8A;/84*41)32)53*75+86+97+<:-??0>>/==.CB3PM>USBTQBOMAKI?EC9=;0=;1FE<MLBONCIG;B?2=;,@@/FF5ML=TRFZWLXVJOMA?>232(-+#.,$/-%44*9:,??.@>/<:-;8-=:-@=0C@4HF;LI?GD:>;095*?<1IF;OMBROETRHSQGMK@FE:HF<IH=HF;DB7NK@YVK][OSPEEB6=8+<6*;6*63)20(10)42*;80@>5GD:LJ?OMARODRPFUSISQGPOCIH<DC9IF=UQG\YN[XNVSIWTK[YO`^SfcXjg[ieZ]ZOQNDCA7B?5KH=VQEWRFMG<A<094*62)64*=;/DB5EC7A@4>=1>=0;;-99+?=0HF8KI;LJ<LJ>MLAHG<??388-;;1DC9KJ?NK@HE9@>0<<,<<,CB5PMB\ZN\ZNQOB@?154(1/%.-%-,$78,=>.DD1EC2C@2A>2C@3DA5DA5CB6B@5?<295+74(=:.DA5KH>QOEXVKUSHOMBGF;FD:GF<GE;JH>USH`]Rb_TXUILH;D@2C>1?:/85+42(43,=;3HE;LI?MJ@HE:DB6?=2FD:LJAQPELK@DD9@?6CA7LI>TQFXVKZXMYVM\ZPa_Tmj^spdolaa^TPNDFD:JG<SPD\WKYSGMG;>9/52)30(76,A@3LK<ON@JI=DC8>=277,65*;9-?>2>>2@?4FD9LJ?II>AB59:.89-AA7MKBUSHPNBFD8?=0?=1?=2HE;SPEWTHOM@DC5<<-66*//&++$87,==/ED3JH9MI<MI=LI=HF:CB7=;1:7-74*63)74(:7+<:.B@5IH=OMBPMBJH<EC7BA7CB7GE;OMC[YN`^S^\PWSFQM@NI<ID8A=175+32)980CA8QNCUQFTPEMJ@EB7?=3A?6IG>IG>FE<AA8CC:IH>MJ@RODWUIYWMZXNYWL_\QifZqnbqocfcXWUKOLBQNCVRF[VJXSFLG;<9.10(..'44*>=1JH:OM?ML?GF<?=487.98.?>3BA5>>2<=1AA6IH=JJ?DE8>?2>?2FE;QPFWUKPODGE:GE9KH>HE;B?5DA6JG<LJ=IH:DD4::,00&++$86+<:/GE9RNBWSGWSGQNBKI>@?598.64+86-75+63)42(64)98-><1DB7FC7EC6A?2@>3?>4EC:NLBXUJYWKURFSOBTOBSNAKF:@=265,21)880CB8PMBVRFYUJVRGPMBIF<JH>KI@GF=@@7CC:OMEVTJZWMXVKXVJVTIRPFSQFTRG][PfcXli^he[b_TXUJURGVRGZVJZUIPK@C?564,10)00(77-@@2HG9HF:DB8><3;:1A@5GG:JI<DD6@A3BB6GF<GF;BB6??2@@5IH>ONDRQGJH>EC9JH=SPFMK@A?497+?<2GD9KI<DD6:9-//&,,%64*=;1JH=VSHZVJTQEMJ>FD8A>4?=3@?6B@7=<387.65,98.:9/;9/=;0><0?<0?</@>2B@6EC:JG=MK?NK?NK?PL@SNBQL@LH<DA7:9044,77/>>4LJ>URF]ZN_[PYVKSPFURHZXNTRJLKBLKBVTK`^Tb`U_]RWUIOMBIG=HF<KI?TRH][PecXjg\hf[_\QTQGSPE[XM]YMWSHLI>?=465-,,&00'86+=<0?>2=<2<:1?>4FF:JK=JJ<DD7BB5DD9IH>FE;A@4<<0?>4CC9IH>HG<B@6><2DB8JH>GE;<;053(86+?=2CA6@?3:8.32*00)43+<;1JH=QODPNCJG<B@4C@4EC8JG=LI?KI?CB9@?6CB8EC:CA8BA8A@7?>3;:/?<1EB7GE;HF<DA8C@5EB6HE:MI>LH=OK?QNAOMACB889023,88/GF<VSHb_Sc`T\XMTQFZWMb`VdbX\ZQVUK[YOebWhfZcaUZXMQODGD;C@7IG>SQGXUK_]RfdYif[]ZPPMCPMCZWL`\P[WKSODDA8:80,,%0.&42(87,98-98-:9/>>3EF:II<HH<BB6AA5ED9IH>GE;@?3:9-:90@@6EE;FF;BA5=<1;:0<;1;:087-64)75)75*:7.=;2><498032,00):90DB8GF:EC7B@4CA4FC7JH<OLBNLAHG=DC9HG<NLBOMCKI@JI@JI@CB8?=3C@6KH>LJ?IF<A?5=:0=:0B?5B@6C@7JH<UTFVVGIJ=:<201*33+CB8VTIdaUdaU]ZNWTI\YOfcYhf\caW[YO][QdaWif[fcX`^SYWLLJ@FD:KI@TRIURHZXMb`VdaWXVLLI?NK@ZWK`\P\XLRNCC@797/-,%/.%41'64*:8-::.==1@A5EE;HH=II=CD8DD9FF;LKAGF;@?366+87->=3FE<IH=GF;?>375,53*65,76,64*64(41&65+><4DB:@?8::300(65-><2><0?<0CA5IG;LJ>LI?KH>GE:@?4@?4IH=QPEPODMLCMLCLKBHF=DA8GD:MJ@OMBKI?DB8<:197.86.97.:8.FD7PP@RUCGI::=110(10(?=4PNC^[O`]Q^[PZWLZXM\ZP^\RZXNVUKYWMb_UdbWfdYb`U[YOOMCHE;IG=KI@LJASQGZXMZXNQNEIG=NK@YVI_\O[XLOLB?=465-,-%//&31'53)88,==0BC5CD8FF<FF<HH>GG<GG<JJ?KK@EF;<<166,;:1@@6ED;GF=HG=B@7=;2:8/<:087-64*53(42'75*>=4DC;DC<BA:86,:8.=;0=;0A>3EC8LJ?MK@KI?FD:@?5<<1@?3GE:KI>LJAKJAJJAJI@HF=FD:GD:NKAQNDRPFJH?@?776.54+31(63*>=0GG7HI9AC49;/20(20(;8.FC8QNCYWL`]R^\QXVKRQGONEMLBLKBRQGXVL^\R][QYWMPOEHG=ED9A@6A?6CA8LJ@RPFPNDJH?HF=KI>SPD[XKZWLOMC@>654--.&00'32(22'66+>>1EF7CD8CC9EE;II?II?LLBLLAMMBCD9;<1;<2EE;GH>CC:>>6?>6BA8CA8B?6<;176-32)31'41'64*<<2DC:GG?GF>FC5DA4C@4DA7FC9FC:FD;HF=JH?GE=DC:BB7EE9FE9GE;FE<HG>ED<CC9A@6@>5A?5GE;PNETRIQOFED;<;265,32)42):9-@?1@@2<=/99-00(20(74+;8.EC9SQF]\P[YNSRHKJAJI?EE:DD:EE;MKBQPFSQHJIABA9>=4==3::065,87.A?5FD:FC9B@7@?6B@6FE9NLARPEOMCB@8880-.'01(33(11&44)=>1DE7AA5>>4BB9KKAKKALKAMMBKL@BC89;1@@7MNCOOECD;66/770A@8JH>EC9<;143+21(20'41'53(::/CC9GG>HH?OL<JG8HD8JG<LJ@DC:@?6CB9IG?JH@IH?GG<JI<HG;ED9DC:ED;CC:==4::1;90<90CA7MLBVTKQPFGG==<276-42)43):8-?<1?=2;:/88-//(10(42(64)@>4POC\ZNYWMPOFLKBKJ@GH<@B6>>5BA8JI@JI@CC;99177.99/77.44+64,;9/@>4@>4><3:91:9/<;1CB8KI@LJ@CB:991